X:1
T:Celle qui est
T:Celle qui est
T:Jacob van Berchem
T:Source : Le Parangon des Chansons---VIIIième livre---Lyon---J.Moderne---1541. Editor : André Vierendeels (08/12/14).
T:b
T:b
C:Jacob van Berchem
%%score [ 1 2 3 4 ]
L:1/8
Q:1/4=120
M:2/2
K:C
V:1 treble nm="Superius" snm="S"
V:2 treble nm="Altus" snm="A"
V:3 treble-8 nm="Tenor" snm="T"
V:4 bass nm="Bassus" snm="B"
V:1
 A4 d2 d2 | c2 c2 f2 f2 | e2 e2 dc BA | Bc d4 c2 | d4 z2 A2 | A4 d4 | G4 z2 G2 | A6 A2 | %8
w: Cel- le qui|est de- dans mon|cueur- em- prain- * * *||cte, nour-|rit les-|prit dung|pen- se-|
w: Pour ce qu'ain-|si na- tu- re|la con- train- * * *||cte de|de- si-|rer par|for- ce|
 Bc dB c2 B2- | B2 A4 G2 | A8 :: f4 e2 e2 | d2 d2 f3 e | d2 c2 B2 A2- | A2 G2 A2 e2 | e2 d2 e4 | %16
w: ment _ _ _ _ mu-|* a- *|ble,|O faulx de-|sir au jeux trop|a- gre- a- *|* * ble que|les piedz fait|
w: son _ _ _ _ sem-|* bla- *|ble,||||||
 z2 A2 A2 A2 | c3 d e2 f2- | f2 e4 d2 | e8- | e4 z4 | z2 A2 A2 A2 | G2 G2 FE FG | AB cd e2 c2 | %24
w: si prom- pte-|ment _ _ cou-||rir,|_|pour con- ten-|ter ces- te _ _ _|_ _ _ _ _ fa-|
w: ||||||||
 d2 e2 AB cd | e2 f4 e2 | d4 c4 | z8 | z2 A2 d2 d2 | c2 A4 G2 | A2 c2 dc de | f2 e4 d2- | %32
w: ce'ho- no- ra- * * *||* ble||là où le|corps _ est|ju- * * * * *|* gé pour|
w: ||||||||
 d2 c2 d4 | z4 z2 A2 | c2 B2 A2 c2 | dc de f2 e2- | e2 d4 c2 | d8 :| %38
w: _ mou- rir,|là|où le corps est|ju- * * * * gé|_ pour mou-|rir|
w: ||||||
V:2
 E4 F2 F2 | E2 A2 A2 F2 | G2 A2 D4 | G4 A4 | F4 z2 F2 | F4 F4 | E4 z2 E2 | F6 C2 | G2 G2 G2 F2- | %9
w: Cel- le qui|est de- dans mon|cueur em- prain-||cte, nour-|rit les-|prit dung|pen- se-|ment mu- a- *|
w: Pour ce qu'ain-|si na- tu- re|la con- train-||cte, de|de- si-|rer par|for- ce|son sem- bla- *|
 F2 D2 E4 | E8 :: A4 A2 A2 | F2 F2 A4 | A4 G2 F2 | E4 C2 c2 | c2 A2 B2 c2 | A3 B c4 | z2 A2 B2 c2 | %18
w: |ble,|O faulx de-|sir au jeux|trop a- gre-|a- ble que|les piedz fait si|prom- pte- ment,|si prom- pte-|
w: |ble,||||||||
 c2 c2 A4- | A8- | A4 z4 | z8 | z8 | z2 A2 A2 A2 | G2 G2 FG AB | cB AG FE A2- | A2 G2 A4 | %27
w: ment cou- rir,|_||||pour con- ten|ter- ces- te _ _ _|fa- * ce'ho- * no- * ra-|* * ble|
w: |||||||||
 z2 D2 G2 G2 | FE FG A2 F2 | E2 F4 ED | C2 A,2 _B,2 B,2 | A,2 A2 F2 G2 | A4 z2 D2 | G2 G2 F4 | %34
w: là où le|corps- _ est _ ju- gé|pour mou- * *|rir, là où le|corps là où le|corps, là|où le corps,|
w: |||||||
 z2 D2 D2 C2 | FE FG A2 A2 | _B2 G2 A2 A2 | F8 :| %38
w: là où le|corps _ _ _ _ est|ju- gé pour mou-|rir.|
w: ||||
V:3
 z8 | z2 A2 d2 d2 | c2 c2 f2 f2 | e2 d2 e4 | d4 z2 c2 | d2 c4 B2 | c2 G2 c4- | c2 c2 d2 f2 | %8
w: |qui est de-|dans mon cueur em-|prain- cte, nour-|rit les-|prit dung *|pen- se- ment|* mu- a- ble,|
w: |Pour ce qu'ain-|si na- tu- re|la con- train-|cte de|de- * si-|rer par for-|* ce son sem-|
 e2 d2 e2 d2- | dc cB/A/ B4 | A8 :: d4 c2 c2 | d4 z2 d2 | f3 e d2 c2 | B4 A2 a2 | g2 f2 e2 e2 | %16
w: O * * *||faulx|de- sir au|jeux trop|a- gre- a- ble|que les piedz|fait si prom- pte-|
w: bla- * * *||ble,||||||
 f6 f2 | ed ef g2 a2- | ag e2 f4 | e8 | z2 e2 e2 e2 | d2 d2 cB cd | e3 c dc de | f3 e/d/ c2 A2 | %24
w: ment cou-|rir, _ _ _ _ pour||con-|ten- ter ces-|te fa- ce'ho- _ _ _|no- * * * * *|* * * ra- ble,|
w: ||||||||
 B2 c2 d2 cB | A2 f2 d2 e2 | f2 ed e2 f2- | fe d4 c2 | d4 A4 | z4 z2 d2 | f2 e2 de fg | %31
w: ces- * * * *|te fa- ce'ho- no-|ra- ble, * là *||* où|le|corps est ju- _ _ _|
w: |||||||
 a2 c2 d2 d2 | f2 e3 d d2- | d2 c2 d4 | z2 g2 f2 e2 | d2 d2 d2 c2 | d4 e4 | d8 :| %38
w: _ gé pour mou-|rir, là * *|* * où|le corps est|ju- gé pour mou-|rir. Cel-|le|
w: |||||||
V:4
 A,4 D,2 D,2 | A,4 z4 | z2 A,2 _B,2 B,2 | G,2 _B,2 A,4 | D,4 z2 F,2 |"^b" F,4 D,4 | C,4 z2 C,2 | %7
w: qui est de-|dans|mon cueur em-|prain- cte, nour-|rit les-|prit dung|pen- se-|
w: Pour ce qu'ain-|si|na- tu- re|la con- train-|cte de|de- si-|rer par|
 F,6 F,2 | G,2 G,2 C,2 D,2 | F,4 E,4 | A,8 :: D,4 A,2 A,2 | D,4 z2 D,2 | D,2 F,2 G,2 A,2 | %14
w: ment mu-|a- ble, O *||faulx|de- sir au|jeux trop|a- gre- a- ble|
w: for- ce|son sem- bla- *||ble.||||
 E,4 A,3 B, | C2 D4 C2 | D4 z2 A,2 | A,2 A,2 G,2 F,2 | C4 D4 | A,4 z2 A,2 | A,2 A,2 G,2 G,2 | %21
w: que les piedz|fait _ si|prom- pte-|ment cou- rir, pour||con- ten|ter ces- te fa-|
w: |||||||
 F,E, F,G, A,2 F,2 | G,F, G,A, B,3 A,/G,/ | F,4 z4 | z8 | z2 D4 C2 |"^b" B,4 A,3 G, | %27
w: ce'ho- _ _ _ _ no-|ra- * ble, * là * *|où||le corps|est ju- gé|
w: ||||||
 F,2 G,2 E,2 E,2 | D,8 |"^b""^b" z2 A,2 B,2 B,2 | A,4 z4 |"^b""^b" z2 A,2 B,2 B,2 | %32
w: pour mou- rir, là|où|le corps, là|où|le crops est|
w: |||||
 A,3 G, F,2 G,2 | E,2 E,2 D,2 D,2 | A,2 G,2 A,2 A,2 |"^b" B,4 A,4 |"^b" G,2 B,2 A,4 | D,8 :| %38
w: ju- gé pour mou-|rir, là où le|corps est ju- gé|pour *|mou- rir. *||
w: ||||||

